Adwaita++/apps/16/libreoffice-chart.svg

<svg xmlns="http://www.w3.org/2000/svg" style="enable-background:new" width="16" height="16" version="1.1">
 <g transform="translate(-112,-180)">
  <path fill="#444" d="m 123.28105,180.00525 c -0.27821,0.0752 -0.37465,0.49932 -0.15625,0.68727 l 3.1875,3.18646 c 0.21982,0.23021 0.69212,0.0371 0.6875,-0.28116 l 0,-3.21769 c -0.0122,-0.20318 -0.20269,-0.37897 -0.40625,-0.37488 l -3.1875,0 c -0.0413,-0.007 -0.0837,-0.007 -0.125,0 z"/>
  <path fill="#444" d="M 1.84375 0.005859375 C 1.36245 0.093259375 0.99137 0.53940937 1 1.0058594 L 1 15 C 1.00006 15.52341 1.51276 15.99995 2.0625 16 L 13.9375 16 C 14.48725 15.99995 14.99995 15.52341 15 15 L 15 7.5 C 15.006 7.23603 14.88035 6.8811362 14.6875 6.6914062 L 8.28125 0.28710938 C 8.08198 0.10346938 7.8085 -0.000260625 7.53125 0.005859375 L 2.0625 0.005859375 C 1.9971 -0.000140625 1.90919 -0.000140625 1.84375 0.005859375 z M 2.25 1.25 L 7.5 1.25 L 13.75 7.5 L 13.75 14.75 L 2.25 14.75 L 2.25 1.25 z M 4 6 L 4 13 L 6 13 L 6 6 L 4 6 z M 10 8 L 10 13 L 12 13 L 12 8 L 10 8 z M 7 9 L 7 13 L 9 13 L 9 9 L 7 9 z" transform="translate(112,180)"/>
 </g>
</svg>

<svg enable-background="new" height="16" width="16" xmlns="http://www.w3.org/2000/svg">
  <g fill="#444" transform="translate(-112 -180)">
    <path d="m123.28105 180.00525c-.27821.0752-.37465.49932-.15625.68727l3.1875 3.18646c.21982.23021.69212.0371.6875-.28116v-3.21769c-.0122-.20318-.20269-.37897-.40625-.37488h-3.1875c-.0413-.007-.0837-.007-.125 0z"/>
    <path d="m1.84375.00585938c-.4813.0874-.85238.53354999-.84375 1.00000002v13.9941406c.00006.52341.51276.99995 1.0625 1h11.875c.54975-.00005 1.06245-.47659 1.0625-1v-7.5c.006-.26397-.11965-.6188638-.3125-.8085938l-6.40625-6.40429682c-.19927-.18364-.47275-.28737001-.75-.28125h-5.46875c-.0654-.006-.15331-.006-.21875 0zm.40625 1.24414062h5.25l6.25 6.25v7.25h-11.5zm1.75 4.75v7h2v-7zm6 2v5h2v-5zm-3 1v4h2v-4z" transform="translate(112 180)"/>
  </g>
</svg>
